X: 10301
M: 2/4
L: 1/16
K: C
cedf egfa | gefd ecdB | (cdec) fedc | B2G2G2 G2 |\
cedf egfa | gdeB cABG | ABcf ecdB | c2c2c2 :|
|: ef |\
gefd ecdB | (cB)AG (AG)FE | fdec dBcA | Bcdc BGAB |\
cedB Ggec | Aagf edcB | cagf edcB | c2c2c2 :|


